Sources/FrostedUI/Resources/Icons.xcassets/wallet20.imageset/wallet-20.svg

<svg width="20" height="20" viewBox="0 0 20 20" fill="none" xmlns="http://www.w3.org/2000/svg" data-fui-icon="true">
  <path
    d="M14.582 3.20801C15.8015 3.20801 16.7907 4.19668 16.791 5.41602C16.791 5.4194 16.7901 5.42337 16.79 5.42676C17.7357 5.75461 18.4159 6.65084 18.416 7.70801V14.375C18.4158 15.7096 17.3336 16.791 15.999 16.791H3.91602C2.58161 16.7908 1.4992 15.7094 1.49902 14.375V5C1.49919 4.01075 2.30177 3.20821 3.29102 3.20801H14.582ZM2.99902 14.375C2.9992 14.881 3.41002 15.2908 3.91602 15.291H15.999C16.5052 15.291 16.9158 14.8811 16.916 14.375V7.70801C16.9159 7.20189 16.5052 6.79103 15.999 6.79102H3.29102C3.19165 6.79099 3.09398 6.78022 2.99902 6.76465V14.375ZM13.749 9.66602C14.5082 9.66602 15.1237 10.2819 15.124 11.041C15.124 11.8004 14.5084 12.416 13.749 12.416C12.9898 12.4158 12.374 11.8003 12.374 11.041C12.3744 10.2821 12.9901 9.66625 13.749 9.66602ZM13.749 10.916C13.6804 10.9162 13.6244 10.9724 13.624 11.041C13.624 11.1099 13.6802 11.1658 13.749 11.166C13.8181 11.166 13.874 11.1101 13.874 11.041C13.8737 10.9723 13.8179 10.916 13.749 10.916ZM3.29102 4.70801C3.1302 4.70821 2.99919 4.83918 2.99902 5C2.9992 5.16081 3.13021 5.29082 3.29102 5.29102H15.2783C15.2189 4.95989 14.9303 4.70801 14.582 4.70801H3.29102Z"
    fill="currentColor"
  />
</svg>

<svg xmlns="http://www.w3.org/2000/svg" width="20" height="20" fill="none" data-fui-icon="true" viewBox="0 0 20 20"><path fill="currentColor" d="M14.582 3.208a2.21 2.21 0 0 1 2.209 2.208l-.001.01a2.42 2.42 0 0 1 1.626 2.282v6.667a2.417 2.417 0 0 1-2.417 2.416H3.916a2.417 2.417 0 0 1-2.417-2.416V5c0-.99.803-1.792 1.792-1.792zM2.999 14.375c0 .506.411.916.917.916h12.083c.506 0 .917-.41.917-.916V7.708a.917.917 0 0 0-.917-.917H3.291q-.15-.001-.292-.026zm10.75-4.709a1.375 1.375 0 1 1-.001 2.751 1.375 1.375 0 0 1 .001-2.751m0 1.25a.126.126 0 0 0-.125.125.125.125 0 1 0 .125-.125M3.291 4.708a.292.292 0 1 0 0 .583h11.987a.71.71 0 0 0-.696-.583z"/></svg>
